src/images/svg/symbols/index100-new.svg

<svg width="32" height="32" viewBox="0 0 32 32" fill="none" xmlns="http://www.w3.org/2000/svg">
<path d="M22.5 13.0001H24V22H22.5V32H21.5V22H20V13.0001H21.5V11.0001H22.5V13.0001Z" fill="#85ACB0"/>
<path d="M30 11V18H28.5V22H27.5V18H26V11H30Z" fill="#85ACB0"/>
<path d="M16.5 20V16H15.5V20H14V28H15.5V30H16.5V28H18V20H16.5Z" fill="#85ACB0"/>
<path d="M10.5 15H12V21H10.5V28H9.5V21H8V15H9.5V13H10.5V15Z" fill="#85ACB0"/>
<path d="M4.5 19H6V23H4.5V25H3.5V23H2V19H3.5V17H4.5V19Z" fill="#85ACB0"/>
<path d="M0 2C0 0.89543 0.895431 0 2 0H17C18.1046 0 19 0.895431 19 2V8C19 9.10457 18.1046 10 17 10H2C0.895431 10 0 9.10457 0 8V2Z" fill="#0E0E0E"/>
<path d="M3.05598 8.00031V7.03231H4.55998V3.28831H4.48798L3.35198 4.77631L2.58398 4.17631L3.91998 2.41631H5.75998V7.03231H6.94398V8.00031H3.05598Z" fill="white"/>
<path d="M9.50086 8.09631C8.77019 8.09631 8.22886 7.84298 7.87686 7.33631C7.52486 6.82965 7.34886 6.12031 7.34886 5.20831C7.34886 4.29631 7.52486 3.58698 7.87686 3.08031C8.22886 2.57365 8.77019 2.32031 9.50086 2.32031C10.2315 2.32031 10.7729 2.57365 11.1249 3.08031C11.4769 3.58698 11.6529 4.29631 11.6529 5.20831C11.6529 6.12031 11.4769 6.82965 11.1249 7.33631C10.7729 7.84298 10.2315 8.09631 9.50086 8.09631ZM9.50086 7.08031C9.82086 7.08031 10.0422 6.96298 10.1649 6.72831C10.2875 6.49365 10.3489 6.16298 10.3489 5.73631V4.68031C10.3489 4.25365 10.2875 3.92298 10.1649 3.68831C10.0422 3.45365 9.82086 3.33631 9.50086 3.33631C9.18086 3.33631 8.95953 3.45365 8.83686 3.68831C8.71419 3.92298 8.65286 4.25365 8.65286 4.68031V5.73631C8.65286 6.16298 8.71419 6.49365 8.83686 6.72831C8.95953 6.96298 9.18086 7.08031 9.50086 7.08031Z" fill="white"/>
<path d="M14.2977 8.09631C13.5671 8.09631 13.0257 7.84298 12.6737 7.33631C12.3217 6.82965 12.1457 6.12031 12.1457 5.20831C12.1457 4.29631 12.3217 3.58698 12.6737 3.08031C13.0257 2.57365 13.5671 2.32031 14.2977 2.32031C15.0284 2.32031 15.5697 2.57365 15.9217 3.08031C16.2737 3.58698 16.4497 4.29631 16.4497 5.20831C16.4497 6.12031 16.2737 6.82965 15.9217 7.33631C15.5697 7.84298 15.0284 8.09631 14.2977 8.09631ZM14.2977 7.08031C14.6177 7.08031 14.8391 6.96298 14.9617 6.72831C15.0844 6.49365 15.1457 6.16298 15.1457 5.73631V4.68031C15.1457 4.25365 15.0844 3.92298 14.9617 3.68831C14.8391 3.45365 14.6177 3.33631 14.2977 3.33631C13.9777 3.33631 13.7564 3.45365 13.6337 3.68831C13.5111 3.92298 13.4497 4.25365 13.4497 4.68031V5.73631C13.4497 6.16298 13.5111 6.49365 13.6337 6.72831C13.7564 6.96298 13.9777 7.08031 14.2977 7.08031Z" fill="white"/>
</svg>

<svg width="32" height="32" fill="none" xmlns="http://www.w3.org/2000/svg"><path d="M22.5 13H24v9h-1.5v10h-1V22H20v-9h1.5v-2h1v2ZM30 11v7h-1.5v4h-1v-4H26v-7h4ZM16.5 20v-4h-1v4H14v8h1.5v2h1v-2H18v-8h-1.5ZM10.5 15H12v6h-1.5v7h-1v-7H8v-6h1.5v-2h1v2ZM4.5 19H6v4H4.5v2h-1v-2H2v-4h1.5v-2h1v2Z" fill="#85ACB0"/><path d="M0 2a2 2 0 0 1 2-2h15a2 2 0 0 1 2 2v6a2 2 0 0 1-2 2H2a2 2 0 0 1-2-2V2Z" fill="#0E0E0E"/><path d="M3.056 8v-.968H4.56V3.288h-.072L3.352 4.776l-.768-.6 1.336-1.76h1.84v4.616h1.184V8H3.056ZM9.5 8.096c-.73 0-1.271-.253-1.623-.76-.352-.506-.528-1.216-.528-2.128 0-.912.176-1.621.528-2.128.352-.506.893-.76 1.624-.76.73 0 1.272.254 1.624.76.352.507.528 1.216.528 2.128 0 .912-.176 1.622-.528 2.128-.352.507-.893.76-1.624.76Zm0-1.016c.32 0 .542-.117.665-.352.123-.234.184-.565.184-.992V4.68c0-.426-.062-.757-.184-.992-.123-.234-.344-.352-.664-.352-.32 0-.541.118-.664.352-.123.235-.184.566-.184.992v1.056c0 .427.061.758.184.992.123.235.344.352.664.352ZM14.298 8.096c-.73 0-1.272-.253-1.624-.76-.352-.506-.528-1.216-.528-2.128 0-.912.176-1.621.528-2.128.352-.506.893-.76 1.624-.76.73 0 1.272.254 1.624.76.352.507.528 1.216.528 2.128 0 .912-.176 1.622-.528 2.128-.352.507-.894.76-1.624.76Zm0-1.016c.32 0 .541-.117.664-.352.122-.234.184-.565.184-.992V4.68c0-.426-.062-.757-.184-.992-.123-.234-.344-.352-.664-.352-.32 0-.542.118-.664.352-.123.235-.184.566-.184.992v1.056c0 .427.061.758.184.992.122.235.344.352.664.352Z" fill="#fff"/></svg>
